packages/ui-solid/icons/profile_colored_square_32.svg

<svg width="32" height="32" viewBox="0 0 32 32" fill="none" xmlns="http://www.w3.org/2000/svg">
<path d="M1 10.6C1 7.23968 1 5.55953 1.65396 4.27606C2.2292 3.14708 3.14708 2.2292 4.27606 1.65396C5.55953 1 7.23969 1 10.6 1H21.4C24.7603 1 26.4405 1 27.7239 1.65396C28.8529 2.2292 29.7708 3.14708 30.346 4.27606C31 5.55953 31 7.23969 31 10.6V21.4C31 24.7603 31 26.4405 30.346 27.7239C29.7708 28.8529 28.8529 29.7708 27.7239 30.346C26.4405 31 24.7603 31 21.4 31H10.6C7.23968 31 5.55953 31 4.27606 30.346C3.14708 29.7708 2.2292 28.8529 1.65396 27.7239C1 26.4405 1 24.7603 1 21.4V10.6Z" fill="#008AFF"/>
<path d="M17.959 13.2759H22.4912C22.6351 13.2759 22.7568 13.2261 22.8564 13.1265C22.9561 13.0269 23.0059 12.9051 23.0059 12.7612C23.0059 12.6174 22.9561 12.4984 22.8564 12.4043C22.7568 12.3047 22.6351 12.2549 22.4912 12.2549H17.959C17.8096 12.2549 17.6851 12.3047 17.5854 12.4043C17.4858 12.4984 17.436 12.6174 17.436 12.7612C17.436 12.9051 17.4858 13.0269 17.5854 13.1265C17.6851 13.2261 17.8096 13.2759 17.959 13.2759ZM17.959 16.5298H22.4912C22.6351 16.5298 22.7568 16.48 22.8564 16.3804C22.9561 16.2808 23.0059 16.1562 23.0059 16.0068C23.0059 15.8685 22.9561 15.7523 22.8564 15.6582C22.7568 15.5586 22.6351 15.5088 22.4912 15.5088H17.959C17.8096 15.5088 17.6851 15.5586 17.5854 15.6582C17.4858 15.7523 17.436 15.8685 17.436 16.0068C17.436 16.1562 17.4858 16.2808 17.5854 16.3804C17.6851 16.48 17.8096 16.5298 17.959 16.5298ZM17.959 19.7754H22.4912C22.6351 19.7754 22.7568 19.7284 22.8564 19.6343C22.9561 19.5347 23.0059 19.4157 23.0059 19.2773C23.0059 19.1335 22.9561 19.0117 22.8564 18.9121C22.7568 18.807 22.6351 18.7544 22.4912 18.7544H17.959C17.8096 18.7544 17.6851 18.807 17.5854 18.9121C17.4858 19.0117 17.436 19.1335 17.436 19.2773C17.436 19.4157 17.4858 19.5347 17.5854 19.6343C17.6851 19.7284 17.8096 19.7754 17.959 19.7754ZM9.30957 19.8335H15.7925C15.9253 19.8335 16.0249 19.792 16.0913 19.709C16.1632 19.626 16.1992 19.5236 16.1992 19.4019C16.1992 19.2026 16.1245 18.9508 15.9751 18.6465C15.8312 18.3366 15.6071 18.0267 15.3027 17.7168C15.0039 17.4014 14.6248 17.1385 14.1655 16.9282C13.7062 16.7179 13.1667 16.6128 12.5469 16.6128C11.9271 16.6128 11.3875 16.7179 10.9282 16.9282C10.4744 17.1385 10.0954 17.4014 9.79102 17.7168C9.49219 18.0267 9.26807 18.3366 9.11865 18.6465C8.97477 18.9508 8.90283 19.2026 8.90283 19.4019C8.90283 19.5236 8.93604 19.626 9.00244 19.709C9.07438 19.792 9.17676 19.8335 9.30957 19.8335ZM12.5469 16.0317C13.0505 16.0317 13.4793 15.8436 13.8335 15.4673C14.1877 15.091 14.3647 14.6178 14.3647 14.0479C14.3647 13.6937 14.2817 13.37 14.1157 13.0767C13.9552 12.7834 13.7367 12.5482 13.46 12.3711C13.1888 12.194 12.8844 12.1055 12.5469 12.1055C12.2148 12.1055 11.9105 12.194 11.6338 12.3711C11.3571 12.5482 11.1357 12.7834 10.9697 13.0767C10.8092 13.37 10.729 13.6937 10.729 14.0479C10.729 14.6178 10.9061 15.091 11.2603 15.4673C11.62 15.8436 12.0488 16.0317 12.5469 16.0317ZM8.81982 23.6519C7.95101 23.6519 7.29801 23.436 6.86084 23.0044C6.4292 22.5783 6.21338 21.9391 6.21338 21.0869V10.9434C6.21338 10.0856 6.4292 9.44368 6.86084 9.01758C7.29801 8.58594 7.95101 8.37012 8.81982 8.37012H23.1802C24.0545 8.37012 24.7075 8.58594 25.1392 9.01758C25.5708 9.44922 25.7866 10.0911 25.7866 10.9434V21.0869C25.7866 21.9391 25.5708 22.5783 25.1392 23.0044C24.7075 23.436 24.0545 23.6519 23.1802 23.6519H8.81982Z" fill="white"/>
</svg>

<svg xmlns="http://www.w3.org/2000/svg" width="32" height="32" fill="none"><path fill="#008AFF" d="M1 10.6c0-3.36 0-5.04.654-6.324a6 6 0 0 1 2.622-2.622C5.56 1 7.24 1 10.6 1h10.8c3.36 0 5.04 0 6.324.654a6 6 0 0 1 2.622 2.622C31 5.56 31 7.24 31 10.6v10.8c0 3.36 0 5.04-.654 6.324a6 6 0 0 1-2.622 2.622C26.44 31 24.76 31 21.4 31H10.6c-3.36 0-5.04 0-6.324-.654a6 6 0 0 1-2.622-2.622C1 26.44 1 24.76 1 21.4z"/><path fill="#fff" d="M17.959 13.276h4.532q.216 0 .365-.15.15-.149.15-.365a.47.47 0 0 0-.15-.357.5.5 0 0 0-.365-.15H17.96q-.225 0-.374.15a.47.47 0 0 0-.149.357q0 .216.15.366t.373.149m0 3.254h4.532q.216 0 .365-.15.15-.15.15-.373a.46.46 0 0 0-.15-.349.5.5 0 0 0-.365-.15H17.96q-.225 0-.374.15a.46.46 0 0 0-.149.349.507.507 0 0 0 .523.523m0 3.245h4.532a.5.5 0 0 0 .365-.14q.15-.15.15-.358a.5.5 0 0 0-.15-.365.48.48 0 0 0-.365-.158H17.96a.5.5 0 0 0-.374.158q-.15.15-.149.365 0 .208.15.357.15.141.373.141m-8.65.059h6.484q.198 0 .298-.125a.45.45 0 0 0 .108-.307q0-.3-.224-.756a3.4 3.4 0 0 0-.672-.93 3.6 3.6 0 0 0-1.138-.788q-.688-.315-1.618-.315t-1.619.315a3.8 3.8 0 0 0-1.137.789q-.448.465-.672.93-.216.456-.216.755 0 .183.1.307a.39.39 0 0 0 .307.125m3.238-3.802q.755 0 1.287-.565.53-.565.53-1.42 0-.53-.248-.97a1.9 1.9 0 0 0-.656-.706 1.63 1.63 0 0 0-.913-.266 1.66 1.66 0 0 0-.913.266 2 2 0 0 0-.664.706 2 2 0 0 0-.241.97q0 .856.531 1.42.54.565 1.287.565m-3.727 7.62q-1.303 0-1.96-.648-.646-.639-.647-1.917V10.943q0-1.287.648-1.925.656-.648 1.959-.648h14.36q1.312 0 1.96.648.646.647.647 1.925v10.144q0 1.278-.648 1.917-.647.648-1.959.648z"/></svg>
